icons/svg/sport/fitness_station.svg

<?xml version="1.0" encoding="UTF-8" standalone="no"?>
<!-- Created with Inkscape (http://www.inkscape.org/) -->

<svg
   xmlns:dc="http://purl.org/dc/elements/1.1/"
   xmlns:cc="http://creativecommons.org/ns#"
   xmlns:rdf="http://www.w3.org/1999/02/22-rdf-syntax-ns#"
   xmlns:svg="http://www.w3.org/2000/svg"
   xmlns="http://www.w3.org/2000/svg"
   xmlns:sodipodi="http://sodipodi.sourceforge.net/DTD/sodipodi-0.dtd"
   xmlns:inkscape="http://www.inkscape.org/namespaces/inkscape"
   version="1.0"
   width="580"
   height="580"
   id="svg2"
   sodipodi:version="0.32"
   inkscape:version="0.91 r"
   sodipodi:docname="fitness_station.svg"
   inkscape:output_extension="org.inkscape.output.svg.inkscape">
  <metadata
     id="metadata2975">
    <rdf:RDF>
      <cc:Work
         rdf:about="">
        <dc:format>image/svg+xml</dc:format>
        <dc:type
           rdf:resource="http://purl.org/dc/dcmitype/StillImage" />
        <cc:license
           rdf:resource="http://web.resource.org/cc/PublicDomain" />
        <dc:language>en</dc:language>
      </cc:Work>
    </rdf:RDF>
  </metadata>
  <sodipodi:namedview
     inkscape:window-height="1004"
     inkscape:window-width="1920"
     inkscape:pageshadow="2"
     inkscape:pageopacity="0.0"
     guidetolerance="10.0"
     gridtolerance="10.0"
     objecttolerance="10.0"
     borderopacity="1.0"
     bordercolor="#666666"
     pagecolor="#ffffff"
     id="base"
     inkscape:zoom="0.46083856"
     inkscape:cx="615.17654"
     inkscape:cy="213.81881"
     inkscape:window-x="1680"
     inkscape:window-y="0"
     inkscape:current-layer="svg2"
     showgrid="false"
     inkscape:window-maximized="1" />
  <defs
     id="defs4">
    <inkscape:perspective
       sodipodi:type="inkscape:persp3d"
       inkscape:vp_x="0 : 290 : 1"
       inkscape:vp_y="0 : 1000 : 0"
       inkscape:vp_z="580 : 290 : 1"
       inkscape:persp3d-origin="290 : 193.33333 : 1"
       id="perspective10" />
  </defs>
  <g
     id="g1327">
    <path
       d="M 66.275,1.768 C 24.94,1.768 1.704,23.139 1.704,66.804 L 1.704,516.927 C 1.704,557.771 22.599,579.156 63.896,579.156 L 515.92,579.156 C 557.227,579.156 578.149,558.841 578.149,516.927 L 578.149,66.804 C 578.149,24.203 557.227,1.768 514.628,1.768 C 514.624,1.768 66.133,1.625 66.275,1.768 z "
       style="fill:#111;stroke:#eee;stroke-width:3.40799999"
       id="path1329" />
  </g>
  <path
     style="fill:#ffffff"
     inkscape:connector-curvature="0"
     d="m 325.475,150.822 c 8.312,0 15.545,-3 21.703,-9.002 6.155,-6.002 9.234,-13.31 9.234,-21.922 0,-8.622 -3.079,-15.934 -9.234,-21.936 -6.158,-6.001 -13.392,-9.003 -21.703,-9.003 -8.614,0 -15.921,3.002 -21.922,9.003 -6.002,6.002 -9.004,13.313 -9.002,21.936 -0.002,8.612 3,15.92 9.002,21.922 6.001,6.002 13.307,9.002 21.922,9.002 z"
     id="path11" />
  <path
     style="fill:#ffffff"
     inkscape:connector-curvature="0"
     d="m 68.796,335.945 83.56,0 c 3.389,0 6.465,-0.306 9.228,-0.916 7.081,-1.23 12.007,-3.386 14.778,-6.467 l 41.082,-45.703 48.014,46.168 -19.386,86.32 c -0.62,1.851 -0.93,3.391 -0.93,4.621 0,5.541 2,10.312 6.001,14.313 4.001,4.001 8.772,6.002 14.315,6.002 10.462,0 16.928,-5.387 19.399,-16.16 l 23.542,-104.789 c 2.771,-11.083 1.541,-19.24 -3.691,-24.472 l -42.011,-42.013 45.703,-53.085 29.544,29.543 c 3.08,3.071 6.621,4.607 10.623,4.607 5.231,0 10.307,-2.306 15.229,-6.917 l 48.014,-48.014 c 2.46,-3.081 3.689,-6.467 3.691,-10.158 -0.002,-4.611 -1.616,-8.457 -4.848,-11.538 -3.23,-3.08 -7.002,-4.621 -11.312,-4.621 -4.312,0 -7.698,1.23 -10.158,3.691 l -39.702,39.715 -48.014,-48.013 c -3.691,-3.701 -8.307,-5.552 -13.849,-5.552 l -75.246,0 c -4.622,0 -8.623,1.851 -12.004,5.552 l -51.704,59.552 c -3.691,3.071 -5.538,6.917 -5.537,11.538 -0.001,4.311 1.537,8.005 4.614,11.081 3.075,3.075 6.769,4.613 11.081,4.613 4.611,0 8.613,-1.846 12.003,-5.537 l 48.014,-55.86 27.697,0.465 -105.72,122.796 -71.555,-0.466 c -5.851,0 -10.777,1.849 -14.779,5.545 -4,3.695 -6.001,8.465 -6.001,14.307 0,5.541 2.001,10.234 6.001,14.081 4.001,3.847 8.773,5.771 14.314,5.771 z"
     id="path13" />
  <path
     style="fill:#ffffff"
     inkscape:connector-curvature="0"
     d="m 537.15804,181.99389 c 4.158,-2.724 6.7492,-11.3522 3.34749,-16.93553 C 537.10383,159.47502 527.73,158.786 523.57,161.51 l -113,74 c -3.451,2.26 -4.924,6.576 -3.574,10.475 l 73.093,211.055 -420.589,0 c -9.389,0 -17,7.611 -17,17 0,9.389 7.611,17 17,17 l 457,0 c 9.389,0 17,-7.611 17,-17 0,-9.389 -7.611,-17 -17,-17 l -5.362,0 -72.837,-210.315 z"
     id="path15"
     sodipodi:nodetypes="czcsccssssssccc" />
</svg>

<svg width="580" height="580" viewBox="0 0 580 580" fill="none" xmlns="http://www.w3.org/2000/svg">
<g clip-path="url(#clip0)">
<path d="M66.2751 1.76815C24.9401 1.76815 1.7041 23.1391 1.7041 66.8041V516.927C1.7041 557.771 22.5991 579.156 63.8961 579.156H515.92C557.227 579.156 578.149 558.841 578.149 516.927V66.8041C578.149 24.2031 557.227 1.76815 514.628 1.76815C514.624 1.76815 66.1331 1.62515 66.2751 1.76815Z" fill="#111111" stroke="#EEEEEE" stroke-width="3.408"/>
<path d="M325.475 150.822C333.787 150.822 341.02 147.822 347.178 141.82C353.333 135.818 356.412 128.51 356.412 119.898C356.412 111.276 353.333 103.964 347.178 97.962C341.02 91.961 333.786 88.959 325.475 88.959C316.861 88.959 309.554 91.961 303.553 97.962C297.551 103.964 294.549 111.275 294.551 119.898C294.549 128.51 297.551 135.818 303.553 141.82C309.554 147.822 316.86 150.822 325.475 150.822Z" fill="white"/>
<path d="M68.796 335.945H152.356C155.745 335.945 158.821 335.639 161.584 335.029C168.665 333.799 173.591 331.643 176.362 328.562L217.444 282.859L265.458 329.027L246.072 415.347C245.452 417.198 245.142 418.738 245.142 419.968C245.142 425.509 247.142 430.28 251.143 434.281C255.144 438.282 259.915 440.283 265.458 440.283C275.92 440.283 282.386 434.896 284.857 424.123L308.399 319.334C311.17 308.251 309.94 300.094 304.708 294.862L262.697 252.849L308.4 199.764L337.944 229.307C341.024 232.378 344.565 233.914 348.567 233.914C353.798 233.914 358.874 231.608 363.796 226.997L411.81 178.983C414.27 175.902 415.499 172.516 415.501 168.825C415.499 164.214 413.885 160.368 410.653 157.287C407.423 154.207 403.651 152.666 399.341 152.666C395.029 152.666 391.643 153.896 389.183 156.357L349.481 196.072L301.467 148.059C297.776 144.358 293.16 142.507 287.618 142.507H212.372C207.75 142.507 203.749 144.358 200.368 148.059L148.664 207.611C144.973 210.682 143.126 214.528 143.127 219.149C143.126 223.46 144.664 227.154 147.741 230.23C150.816 233.305 154.51 234.843 158.822 234.843C163.433 234.843 167.435 232.997 170.825 229.306L218.839 173.446L246.536 173.911L140.816 296.707L69.261 296.241C63.41 296.241 58.484 298.09 54.482 301.786C50.482 305.481 48.481 310.251 48.481 316.093C48.481 321.634 50.482 326.327 54.482 330.174C58.483 334.021 63.255 335.945 68.796 335.945V335.945Z" fill="white"/>
<path d="M537.158 181.994C541.316 179.27 543.907 170.641 540.506 165.058C537.104 159.475 527.73 158.786 523.57 161.51L410.57 235.51C407.119 237.77 405.646 242.086 406.996 245.985L480.089 457.04H59.5C50.111 457.04 42.5 464.651 42.5 474.04C42.5 483.429 50.111 491.04 59.5 491.04H516.5C525.889 491.04 533.5 483.429 533.5 474.04C533.5 464.651 525.889 457.04 516.5 457.04H511.138L438.301 246.725L537.158 181.994Z" fill="white"/>
</g>
<defs>
<clipPath id="clip0">
<path d="M0 0H580V580H0V0Z" fill="white"/>
</clipPath>
</defs>
</svg>
